src/assets/address/LineaIcon.svg

<svg viewBox="0 0 200 208" fill="none" xmlns="http://www.w3.org/2000/svg">
<g clip-path="url(#clip0_2303_632)">
<path d="M132.369 155.99H49.7V68.8854H68.6147V139.109H132.369V155.981V155.99Z" fill="#121212"/>
<path d="M132.369 85.7575C141.687 85.7575 149.241 78.2036 149.241 68.8855C149.241 59.5673 141.687 52.0134 132.369 52.0134C123.05 52.0134 115.497 59.5673 115.497 68.8855C115.497 78.2036 123.05 85.7575 132.369 85.7575Z" fill="#121212"/>
</g>
<defs>
<clipPath id="clip0_2303_632">
<rect width="99.5407" height="103.977" fill="white" transform="translate(49.7 52.0134)"/>
</clipPath>
</defs>
</svg>

<svg xmlns="http://www.w3.org/2000/svg" fill="none" viewBox="0 0 200 208"><g fill="#121212" clip-path="url(#a)"><path d="M132.369 155.99H49.7V68.885h18.915v70.224h63.754v16.881ZM132.369 85.757c9.318 0 16.872-7.553 16.872-16.872 0-9.318-7.554-16.872-16.872-16.872-9.319 0-16.872 7.554-16.872 16.872 0 9.319 7.553 16.872 16.872 16.872Z"/></g><defs><clipPath id="a"><path fill="#fff" d="M49.7 52.013h99.541V155.99H49.7z"/></clipPath></defs></svg>
